X: 510
T: Dallas Rag
C:Coley Cole, Dallas String Band, 1927
B: jims roots
M:4/4
L:1/8
Q: 1/4=100
K:F
V:1 
_a=a3 ef3 | cd3 _A=A3 | cc zc d2 _e2 | e4 "C"z[G,2E2c2] z||
|:"C7"CCD_E Ec2 c | BBBc AAGA | "F"FFAc cf2f | e2 d2 d4 |
z"C7"_e =e_e =e_e =e_e | e(cc)c [G,2E2c2][G,2E2c2] | "F"_a=aaa efff | cddA _A=AAA ||
"C7"CCD_E =Ec2z| [E2B2][EB]c AAGA | "F"FFAc cf2 g | e2 d2 d4 | z"Bb"f fg e2 d2 |
"F"c=Bc(d d) cA | "G7"[=B,F][=B,F] [=B,2F2] "C7"[_B,E][_B,E] [_B,2E2]| [1 "F"[A,2F2] [A,F][A,F] [A,2F2] (3A,B,=B,:| [2 "F"[A,2F2] [A,F][A,F] [A,2F2]z2||
|: "C7"[E3c3]B A2 G2 | zA cA cA c2 | "F"c3^G AFFF| FA Ac cc D_E|
"C7"E2 cc c(c c)c | [E2c2] [Ec][Ec] [Ec][Ec][E2c2| "F"[A,2F2] G,A,A,B,=B,C| D_E=EF G_A=AA||
"C"[Ec][Ec] [Ec]B AA G2 | zA cA cA cA | "F"cc c_A =AA FF | FA Ac cA FE |
"Bb"DD DE FE FG | "F"AAA(d d)cA | "G7"[=B,F][=B,F] [=B,2F2] "C7"[_B,Ec][_B,Ec] [_B,2E2c2]|"F"[A,F][A,2F2] [A,F] [A,2F2]z2:|
% abcbook-tune_id 6298c24566e1955dbe58ea16


% abcbook-boost 0
% abcbook-tablature 
% abcbook-transpose 
% abcbook-lastupdated 1654178373927
% abcbook-soundfonts 
% abcbook-repeats 1


